svg/device/telescope_line.svg

<?xml version="1.0" encoding="UTF-8"?>
<svg width="24px" height="24px" viewBox="0 0 24 24" version="1.1" xmlns="http://www.w3.org/2000/svg" xmlns:xlink="http://www.w3.org/1999/xlink">
    <title>telescope_line</title>
    <g id="页面-1" stroke="none" stroke-width="1" fill="none" fill-rule="evenodd">
        <g id="Device" transform="translate(-672.000000, -96.000000)">
            <g id="telescope_line" transform="translate(672.000000, 96.000000)">
                 <path d="M24,0 L24,24 L0,24 L0,0 L24,0 Z M12.5934901,23.257841 L12.5819402,23.2595131 L12.5108777,23.2950439 L12.4918791,23.2987469 L12.4918791,23.2987469 L12.4767152,23.2950439 L12.4056548,23.2595131 C12.3958229,23.2563662 12.3870493,23.2590235 12.3821421,23.2649074 L12.3780323,23.275831 L12.360941,23.7031097 L12.3658947,23.7234994 L12.3769048,23.7357139 L12.4804777,23.8096931 L12.4953491,23.8136134 L12.4953491,23.8136134 L12.5071152,23.8096931 L12.6106902,23.7357139 L12.6232938,23.7196733 L12.6232938,23.7196733 L12.6266527,23.7031097 L12.609561,23.275831 C12.6075724,23.2657013 12.6010112,23.2592993 12.5934901,23.257841 L12.5934901,23.257841 Z M12.8583906,23.1452862 L12.8445485,23.1473072 L12.6598443,23.2396597 L12.6498822,23.2499052 L12.6498822,23.2499052 L12.6471943,23.2611114 L12.6650943,23.6906389 L12.6699349,23.7034178 L12.6699349,23.7034178 L12.678386,23.7104931 L12.8793402,23.8032389 C12.8914285,23.8068999 12.9022333,23.8029875 12.9078286,23.7952264 L12.9118235,23.7811639 L12.8776777,23.1665331 C12.8752882,23.1545897 12.8674102,23.1470016 12.8583906,23.1452862 L12.8583906,23.1452862 Z M12.1430473,23.1473072 C12.1332178,23.1423925 12.1221763,23.1452606 12.1156365,23.1525954 L12.1099173,23.1665331 L12.0757714,23.7811639 C12.0751323,23.7926639 12.0828099,23.8018602 12.0926481,23.8045676 L12.108256,23.8032389 L12.3092106,23.7104931 L12.3186497,23.7024347 L12.3186497,23.7024347 L12.3225043,23.6906389 L12.340401,23.2611114 L12.337245,23.2485176 L12.337245,23.2485176 L12.3277531,23.2396597 L12.1430473,23.1473072 Z" id="MingCute" fill-rule="nonzero"></path>
                <path d="M16.6113,3.35282 C17.5223476,2.82682952 18.6751186,3.09906127 19.2599379,3.95251923 L19.3433,4.08487 L21.8433,8.41499 C22.3693,9.3260281 22.0971141,10.4789075 21.2436518,11.0636508 L21.1113,11.147 L15.9151,14.147 C15.42973,14.42726 14.875753,14.480963 14.3755681,14.3408411 L14.211,14.287 L16.9192,20.6061 C17.1367,21.1137 16.9016,21.7016 16.394,21.9191 C15.9225643,22.1211571 15.3819765,21.9327898 15.1330123,21.4984363 L15.0809,21.3939 L13,16.5386 L10.9192,21.3939 C10.7016,21.9015 10.1137,22.1367 9.60611,21.9191 C9.13473929,21.7171357 8.89831306,21.1957959 9.04113355,20.7159363 L9.08089,20.6061 L11.1697,15.7321 L9.35287,16.7811 C8.70587,17.1546 7.93691,17.1256 7.33606,16.7717 L7.23143875,16.8463125 L7.23143875,16.8463125 L7.12081,16.915 L5.38876,17.915 C4.47773143,18.441 3.3248888,18.1687234 2.74007122,17.3152525 L2.65671,17.1829 L2.15671,16.3169 C1.63072905,15.4058524 1.90296125,14.2530814 2.75641059,13.6682621 L2.88876,13.5849 L4.62081,12.5849 C4.69656,12.5411 4.77398,12.5029 4.85261,12.4701 C4.84704385,11.8264385 5.15279036,11.1971769 5.70871278,10.8104082 L5.85287,10.7189 L10.183,8.21891 C10.2588,8.17516 10.3362,8.13694 10.4149,8.10411 C10.4092692,7.46044846 10.7149852,6.83114432 11.2709348,6.44433762 L11.4151,6.35282 L16.6113,3.35282 Z M5.62079,14.3169 L3.88876,15.3169 L4.38876,16.1829 L6.12079,15.183 L5.62079,14.3169 Z M11.183,9.95096 L6.85287,12.451 L8.35287,15.049 L12.683,12.549 L11.183,9.95096 Z M17.6113,5.08487 L12.4151,8.08487 L14.9151,12.415 L20.1113,9.41499 L17.6113,5.08487 Z" id="形状" fill="#09244B"></path>
            </g>
        </g>
    </g>
</svg>

<svg xmlns="http://www.w3.org/2000/svg" width="24" height="24"><g fill="none" fill-rule="evenodd"><path d="M24 0v24H0V0h24ZM12.593 23.258l-.011.002-.071.035-.02.004-.014-.004-.071-.035c-.01-.004-.019-.001-.024.005l-.004.01-.017.428.005.02.01.013.104.074.015.004.012-.004.104-.074.012-.016.004-.017-.017-.427c-.002-.01-.009-.017-.017-.018Zm.265-.113-.013.002-.185.093-.01.01-.003.011.018.43.005.012.008.007.201.093c.012.004.023 0 .029-.008l.004-.014-.034-.614c-.003-.012-.01-.02-.02-.022Zm-.715.002a.023.023 0 0 0-.027.006l-.006.014-.034.614c0 .012.007.02.017.024l.015-.002.201-.093.01-.008.004-.011.017-.43-.003-.012-.01-.01-.184-.092Z"/><path fill="#09244B" d="M16.611 3.353a2 2 0 0 1 2.649.6l.083.132 2.5 4.33a2 2 0 0 1-.6 2.649l-.132.083-5.196 3c-.485.28-1.04.334-1.54.194l-.164-.054 2.708 6.32a1 1 0 0 1-1.786.891l-.052-.104L13 16.539l-2.08 4.855a1 1 0 0 1-1.879-.678l.04-.11 2.089-4.874-1.817 1.05a2 2 0 0 1-2.017-.01l-.105.074-.11.069-1.732 1a2 2 0 0 1-2.649-.6l-.083-.132-.5-.866a2 2 0 0 1 .6-2.649l.132-.083 1.732-1c.076-.044.153-.082.232-.115a2 2 0 0 1 .856-1.66l.144-.091 4.33-2.5c.076-.044.153-.082.232-.115a2 2 0 0 1 .856-1.66l.144-.091 5.196-3ZM5.621 14.317l-1.732 1 .5.866 1.732-1-.5-.866Zm5.562-4.366-4.33 2.5 1.5 2.598 4.33-2.5-1.5-2.598Zm6.428-4.866-5.196 3 2.5 4.33 5.196-3-2.5-4.33Z"/></g></svg>
